build/system/OpenInNewSolid.svg

<svg xmlns="http://www.w3.org/2000/svg" fill="none" viewBox="0 0 24 24" focusable="false"><path d="M0 0H24V24H0z"/><path fill="#74767B" fill-rule="evenodd" d="M8 9.5C8 7.9292 8.55713 6.48865 9.48438 5.36499C9.86719 4.90125 9.56152 4 8.96045 4L7 4C5.34326 4 4 5.34314 4 7L4 17C4 18.6569 5.34326 20 7 20L17 20C18.6567 20 20 18.6569 20 17L20 15.0396C20 14.4382 19.0986 14.1326 18.6348 14.5154C17.5112 15.4429 16.0708 16 14.5 16C10.9102 16 8 13.0898 8 9.5ZM14.5 15C17.5347 15 20 12.5348 20 9.5C20 6.46521 17.5347 4 14.5 4C11.4653 4 9 6.46521 9 9.5C9 12.5348 11.4653 15 14.5 15ZM16.7373 11.4399C16.395 11.4199 16.0908 11.1727 16.1045 10.8369L16.106 8.45215L12.2539 12.1191C12.0127 12.3604 11.6221 12.3604 11.3809 12.1191C11.1401 11.8781 11.1401 11.4869 11.3809 11.2458L15.228 7.58362L12.8877 7.5874C12.5449 7.60754 12.2739 7.34595 12.2539 7.00342C12.2407 6.66748 12.4912 6.32495 12.834 6.30469L16.6851 6.3009C17.0815 6.28076 17.4038 6.60327 17.3838 6.99963L17.3828 10.8489C17.3687 11.2057 17.0801 11.4528 16.7373 11.4399Z"/></svg>

<svg xmlns="http://www.w3.org/2000/svg" fill="none" viewBox="0 0 24 24" focusable="false"><path fill="#74767B" fill-rule="evenodd" d="M8 9.5c0-1.58.55-3.02 1.48-4.14C9.86 4.9 9.56 4 8.96 4H7C5.34 4 4 5.34 4 7v10c0 1.65 1.34 3 3 3h10c1.65 0 3-1.35 3-3v-1.97c0-.6-.91-.9-1.37-.52A6.44 6.44 0 0 1 14.5 16C10.91 16 8 13.08 8 9.5m6.5 5.5c3.03 0 5.5-2.47 5.5-5.5C20 6.46 17.53 4 14.5 4 11.46 4 9 6.46 9 9.5c0 3.03 2.46 5.5 5.5 5.5m2.23-3.57c-.34-.02-.64-.26-.63-.6V8.45l-3.85 3.66c-.24.25-.63.25-.87 0a.616.616 0 0 1 0-.87l3.84-3.66h-2.34a.6.6 0 0 1-.63-.58c-.01-.34.24-.68.58-.7h3.85c.4-.02.72.3.7.69v3.85c-.02.36-.3.61-.65.59"/></svg>
